X:1
T:Title
%%score { ( 1 3 ) | ( 2 4 ) }
L:1/8
M:6/8
K:Bb
V:1 treble nm="Grand Piano"
V:3 treble 
V:2 bass 
V:4 bass 
V:1
 z3 z2[Q:1/4=81] [DF]/[_D=E]/ | [EG][DF][DF] [Fd][Ec][DB] | [EB][EA][EA] A2 A/G/ | FAc edc | %4
 [Fd]3- [Fd]2 [DF]/[_D=E]/ | [EG][DF][DF] [DB]cd | [Ge][EG][Gd] [Gc]2 [GB]/[GB]/ | BAG AFc | %8
[M:5/8] [DB]-[DB]- [DB]3 |[M:1/8] D/F/ |[M:3/4] B4 z2 | A4 z2 |[M:2/4] e4 |[M:1/4] GF |[M:3/4] d6 | %15
 GG G [Ge]2 [EG]/[EG]/ | [DF][_D=E] [=DF] [Fd]2 [Bf]/[_Af]/ | [Gf][Ge] GA F>c |[M:5/8] B-B- B3 |] %19
V:2
 z3 z2 [B,,B,]/[B,,B,]/ | [B,,B,][B,,B,][B,,B,] [B,,B,][B,,B,][B,,B,] | %2
 [C,F,][C,F,][C,F,] [F,CE]2 [F,CE]/[F,B,E]/ | [F,A,E][F,CE][F,A,E] [F,CF][F,B,F][F,A,F] | %4
 [B,,B,]3- [B,,B,]2 [B,,B,]/[B,,B,]/ | [B,,B,][B,,B,][B,,B,] [B,,B,][K:treble][B,_A][B,A] | %6
 [E,B,][C,C][D,=B,] [E,C]2 [=E,C]/[E,C]/ | [F,CE][F,CE][F,CE] [F,CE][F,A,E][F,A,E] | %8
[M:5/8] [B,,F,]-[B,,F,]- [B,,F,]3 |[M:1/8] z |[M:3/4] z [B,,F,] [B,,F,][B,,F,] z2 | %11
 z [C,F,] [C,F,][C,F,] z2 |[M:2/4] z [F,C] [F,C][F,C] |[M:1/4] z2 | %14
[M:3/4] z [B,,B,] [B,,B,] [B,,B,]2 [B,,B,]/[B,,B,]/ | %15
 [E,B,E][E,B,E] [E,B,E] [E,B,]2 [E,B,]/[E,B,]/ | [B,,B,][B,,B,] [B,,B,] [B,,B,]2 [D,B,]/[D,B,]/ | %17
 [E,B,][E,B,] [E,CE][F,CE] [F,A,E]>[F,A,E] |[M:5/8] z A,G, F,2 |] %19
V:3
 x6 | x6 | x6 | x6 | x6 | x6 | x6 | x6 |[M:5/8] x5 |[M:1/8] x |[M:3/4] z D DD AG | z E EE GF | %12
[M:2/4] z A AA |[M:1/4] x2 |[M:3/4] z F F F2 [DF]/[DF]/ | x6 | x6 | x6 |[M:5/8] [B,D]FE D2 |] %19
V:4
 x6 | x6 | x6 | x6 | x6 | x4[K:treble] x2 | x6 | x6 |[M:5/8] x5 |[M:1/8] x |[M:3/4] x6 | x6 | %12
[M:2/4] x4 |[M:1/4] x2 |[M:3/4] x6 | x6 | x6 | x6 |[M:5/8] B,,-B,,- B,,3 |] %19

